!!!!SEGMENT: pl-kk--kk-i-382--062_anonim--offertorium-nro-3.krn
!!!cenid: 18xx:1564
!!!COM: Anonim
!!!COM-rismID: pe30004985
!!!CDT:
!!!CNT:
!!!OTL: Offertorium Nro 3
!!!PDT:
!!!AGN: Sacred
!!!SMS-siglum: PL-Kk
!!!SMS-shelfmark: Kk.I.382
!!!SMS-shelfwork: 048 W
!!!SMS-variant:
!!!SMS-altvar:
!!!NIFC-rismSourceID: 1001139027
!!!NIFC-rismChildID: 1001140964
!!!NIFC-islandoraID: pl-kk:6162
!!!URL-pdf-islandora: https://repozytorium.nifc.pl/islandora/object/pl-kk%3A6162/datastream/PDF/view
!!!URL-scan: https://polish.musicsources.pl/pl/lokalizacje/galeria/rekopisy/5994 @EN{Scan on Polish Music Sources Website} @PL{Skany w portalu Dziedzictwo Muzyki Polskiej w otwartym dostępie}
!!!ONB-nifc: UWAGA: obsada: S (T 1), A (B 1), T 2, B 2; S (T 1): skan 0042, A (B 1): skan 0186, T 2: skan 0114, B 2: skan 0263
!!!AIN: 1 alto 1 bass 2 tenor
!!!key:
**kern	**text	**kern	**text	**kern	**text	**kern	**text
*part4	*part4	*part3	*part3	*part2	*part2	*part1	*part1
*staff4	*staff4	*staff3	*staff3	*staff2	*staff2	*staff1	*staff1
*Ibass	*	*Itenor	*	*Ialto	*	*Itenor	*
*I"Basso II	*	*I"Tenore II	*	*I"Alto vel Basso I	*	*I"Soprano vel Tenore I.	*
*I'B 2	*	*I'T 2	*	*I'A (B 1)	*	*I'S (T 1)	*
*clefF4	*	*clefC4	*	*clefC3	*	*clefC1	*
*k[b-]	*	*k[b-]	*	*k[b-]	*	*k[b-]	*
*F:	*	*F:	*	*F:	*	*F:	*
*M3/2	*	*M3/2	*	*M3/2	*	*M3/2	*
=1	=1	=1	=1	=1	=1	=1	=1
*	*	*	*	*	*	*rscale:1/2	*
*2\right	*	*2\right	*	*2\right	*	*2\right	*
!LO:TX:t=P:problem=all\right&colon; global	!	!LO:TX:t=P:problem=all\right&colon; global	!	!LO:TX:t=P:problem=all\right&colon; global	!	!LO:TX:a:t=P:problem=metrum 3/4	!
!	!	!	!	!	!	!LO:TX:a:t=P:problem=all\right&colon; global	!
!LO:TX:a:i:t=Nro 3.	!	!LO:TX:a:i:t=Nro. 3.\nDe Wirginibus.	!	!LO:TX:a:i:t=Nro 3 de Virginibus.	!	!LO:TX:a:i:t=Nro 3.\nin D mol.	!
!LO:TX:a:i:t=de Virginibus.	!	!	!	!	!	!	!
!LO:TX:a:t=P:problem= dopiski przed kluczem, numer na pięciolinii	!	!	!	!	!	!	!
!LO:TX:b:i:t=in D.mol.	!	!LO:TX:a:t=P:problem=dopisek na pięciolinii przed kluczem	!	!LO:TX:a:t=P:problem=dopisek na pięciolinii przed kluczem	!	!LO:TX:a:t=P:problem=dopisek na pięciolinii przed kluczem	!
2.D/	Vir-	2.A\	Vir-	2.f\	Vir-	2.dd\	Vir-
4C/	-gi-	4A\	-gi-	4f\	-gi-	4dd\	-gi-
2BBn/	-nis	2d\	-nis	2g\	-nis	2dd\	-nis
=2	=2	=2	=2	=2	=2	=2	=2
2.AA/	pro-	1e	pro-	1a	pro-	1cc#X	pro-
4BBn/	.	.	.	.	.	.	.
2C#X/	-les	2A\	-les	2e\	-les	2cc#\	-les
=3	=3	=3	=3	=3	=3	=3	=3
2.D\	o-	2.f\	o-	(>4d\	o-	2.a\	o-
.	.	.	.	4e\)	.	.	.
.	.	.	.	(>4f\	-pi-	.	.
4E\	-pi-	4e\	-pi-	4g\)	.	4a\	-pi-
(>4F\	-fex-	2d\	-fex-	2a\	-fex-	2a\	-fex-
4G\)	.	.	.	.	.	.	.
=4	=4	=4	=4	=4	=4	=4	=4
2A\	-que	2c#X\	-que	2e\	-que	2a\	-que
1B-X	Ma-	1d	Ma-	2f\	Ma-	(>2a\	Ma-
.	.	.	.	2g\	.	2g\)	.
!	!	!	!	!LO:LB:g=original	!	!	!
=5	=5	=5	=5	=5	=5	=5	=5
1.A	-tris	1.c#X	-tris	1.e	-tris	1.a	-tris
!LO:LB:g=original	!	!	!	!	!	!LO:LB:g=original	!
=6	=6	=6	=6	=6	=6	=6	=6
2F\	vir-	2cn\	vir-	2f\	vir-	2a\	vir-
2.E\	-go	2.c\	-go	2g\	-go	2g\	-go
.	.	.	.	2g\	quem	2g\	quem
4E\	quem	4B-X\	quem	.	.	.	.
=7	=7	=7	=7	=7	=7	=7	=7
!LO:SIC:l:v:s=ges-	!	!LO:SIC:l:v:s=ges-	!	!LO:SIC:l:v:s=ges-	!	!LO:SIC:l:v:s=ges-	!
1F	ge-	1A	ge-	1f	ge-	1cc	ge-
2F\	-sit	2A\	-sit	2f\	-sit	2cc\	-sit
!	!	!LO:LB:g=original	!	!	!	!	!
=8	=8	=8	=8	=8	=8	=8	=8
2.BB-X/	pe-	2.d\	pe-	2.f\	pe-	2.b-X\	pe-
4C/	-pe-	4c\	-pe-	4e\	-pe-	4b-\	-pe-
(>4D\	-rit-	2B-X\	-rit-	(>4f\	-rit-	2f/	-rit-
4E\)	.	.	.	4g\)	.	.	.
=9	=9	=9	=9	=9	=9	=9	=9
2F\	-que	2A\	-que	2a\	-que	(>2f\	-que
!	!	!	!	!	!	!LO:TX:a:t=P:problem= bemol na wysokości a	!
2BB-X/	vir-	1G	vir-	(>2f\	vir-	2b-X\)	.
2C/	.	.	.	2e\)	.	(>4g\L	vir-
.	.	.	.	.	.	4cc\J)	.
=10	=10	=10	=10	=10	=10	=10	=10
1.F	-go.	1.A	-go	1.f	-go.	1.cc	-go,
!	!	!	!	!LO:LB:g=original	!	!	!
=11	=11	=11	=11	=11	=11	=11	=11
2.F\	vir-	2.c\	vir-	2.f\	vir-	2.a\	vir-
4E\	-gi-	4c\	-gi-	4g\	-gi-	4a\	-gi-
2D\	-nis	2d\	-nis	2f\	-nis	2bn\	-nis
!LO:LB:g=original	!	!	!	!	!	!LO:LB:g=original	!
=12	=12	=12	=12	=12	=12	=12	=12
1C	par-	1en	par-	1e	par-	1cc	par-
2C\	-tos	2e\	-tos	2e\	-tos	2cc\	-tos
=13	=13	=13	=13	=13	=13	=13	=13
2.G\	ca-	2.c\	ca-	2.g\	ca-	2.bn\	ca-
4E\	-ni-	4d\	-ni-	4g\	-ni-	4cc\	-ni-
2F\	-mus	2c\	-mus	2f\	-mus	2a\	-mus
=14	=14	=14	=14	=14	=14	=14	=14
2D\	de-	(>4d\	de-	2f\	de-	2a\	de-
.	.	4c\)	.	.	.	.	.
2E\	-co-	1Bn	-co-	1e	-co-	(>2a\	-co-
2EE/	.	.	.	.	.	2g#X\)	.
=15	=15	=15	=15	=15	=15	=15	=15
2AA/	-ra	2A\	-ra	2e\	-ra	1.a	-ra,
(>2A\	Mor-	(>4c\	mor-	(>4e\	mor-	.	.
.	.	4Bn\	.	4d\	.	.	.
4G\	.	4c\	.	4e\	.	.	.
4F\	.	4d\)	.	4f\)	.	.	.
!	!	!LO:LB:g=original	!	!	!	!	!
=16	=16	=16	=16	=16	=16	=16	=16
2E\)	.	2.e\	.	2g\	.	2g\	mor-
1F	-te	.	.	2.f\	.	1a	-te
.	.	4d\	.	.	.	.	.
.	.	2c\	.	.	.	.	.
.	.	.	.	4e\	.	.	.
!	!	!	!	!LO:LB:g=original	!	!	!
=17	=17	=17	=17	=17	=17	=17	=17
(>1G	mor-	1Bn	.	1d	.	(>1b-	mor-
4F\	.	2c#X\	-te	2e\	-te	4a\L	.
4E\)	.	.	.	.	.	4g\J)	.
!LO:LB:g=original	!	!	!	!	!	!	!
=18	=18	=18	=18	=18	=18	=18	=18
2.D\	.	1d	mor-	2.f\	mor-	2.f/	.
4E\	.	.	.	4g\	.	4g/	.
2F\	-te	2d\	-te	2a\	-te	2a\	-te
!	!	!	!	!	!	!LO:LB:g=original	!
=19	=19	=19	=19	=19	=19	=19	=19
2G\	try-	2d\	tri-	2e\	tri-	2b-\	tri-
2A\	-um-	(>2d\	-um-	1e	-um-	1a	-um-
2AA/	.	2c#X\)	.	.	.	.	.
=20	=20	=20	=20	=20	=20	=20	=20
!LO:SIC:l:v:s=-phos	!	!LO:SIC:l:v:s=-phos	!	!LO:SIC:l:v:s=-phos	!	!LO:SIC:l:v:s=-phos	!
1.D	-fos.	1.d	-fos.	1.f#	-fos.	1.a	-fos,
!	!	!	!	!LO:TX:b:t=P:problem=dopisek na pięciolinii za ostatnią kreską taktową	!	!	!
!	!	!	!	!LO:TX:b:i:t=V&colon; S&colon;	!	!	!
!	!	!	!	!LO:PB:g=original	!	!	!
=21||	=21||	==21	==21	==21	==21	=21||	=21||
!LO:SIC:l:v:s=haec-	!	!LO:SIC:l:v:s=Haec-	!	!LO:SIC:l:v:s=haec-	!	!LO:SIC:l:v:s=haec-	!
2D\	hec	2d\	Hec	2fn\	hec	2a\	hec
2D\	e-	2d\	e-	2g\	e-	2b-X\	e-
2C/	-nim	2e\	-nim	2a\	-nim	2a\	-nim
=22	=22	=22	=22	=22	=22	=22	=22
1.BB-X	pal-	(>4f\	pal-	2.d\	pal-	(>1a	pal-
.	.	4e\	.	.	.	.	.
.	.	1d)	.	.	.	.	.
.	.	.	.	8e\L	.	.	.
.	.	.	.	8f\J	.	.	.
.	.	.	.	4e\	.	2g\)	.
.	.	.	.	4d\	.	.	.
=23	=23	=23	=23	=23	=23	=23	=23
!LO:SIC:l:v:s=-mae	!	!LO:SIC:l:v:s=-mae	!	!LO:SIC:l:v:s=-mae	!	!LO:SIC:l:v:s=-mae	!
1.AA	-me	1.c#X	-me	1.e	-me	1.a	-me
=24	=24	=24	=24	=24	=24	=24	=24
2.F\	du-	(>2.f\	du-	2.a\	du-	2.ccn\	du-
4F\	-pli-	4e\)	.	4g\	-pli-	4cc\	-pli-
2BB-/	-cis	(>4d\	-pli-	(>4f\	-cis	2dd\	-cis
.	.	4e\)	.	4g\)	.	.	.
!LO:LB:g=original	!	!LO:LB:g=original	!	!	!	!	!
=25	=25	=25	=25	=25	=25	=25	=25
2AA/	be-	2f\	-cis	2a\	be-	2cc\	be-
1C	-a-	2f\	be-	1g	-a-	(>2.cc\	-a-
.	.	2e\	-a-	.	.	.	.
.	.	.	.	.	.	4b-X\)	.
!	!	!	!	!	!	!LO:LB:g=original	!
=26	=26	=26	=26	=26	=26	=26	=26
1.F	-ta	1.f	-ta	1.f	-ta	1.a	-ta
!	!	!	!	!LO:LB:g=original	!	!	!
=27	=27	=27	=27	=27	=27	=27	=27
2F\	sor-	2c\	sor-	2f\	sor-	2a\	sor-
2F\	-te	2d\	-te	2g\	-te	2bn\	-te
2E\	dum	2e\	dum	2g\	dum	2cc#X\	dum
=28	=28	=28	=28	=28	=28	=28	=28
!LO:SIC:l:v:s=ges-	!	!LO:SIC:l:v:s=ges-	!	!LO:SIC:l:v:s=ges-	!	!LO:SIC:l:v:s=ges-	!
1D	ge-	1f	ge-	(>2.f\	ge-	1dd	ge-
.	.	.	.	4g\)	.	.	.
!LO:SIC:l:v:s=-tit	!	!LO:SIC:l:v:s=-tit	!	!LO:SIC:l:v:s=-tit	!	!LO:SIC:l:v:s=-tit	!
2C#X/	-sit	2e\	-sit	2a\	-sit	2a\	-sit
=29	=29	=29	=29	=29	=29	=29	=29
!LO:SIC:l:v:s=fra-	!	!LO:SIC:l:v:s=fra-	!	!LO:SIC:l:v:s=fra-	!	!LO:SIC:l:v:s=fra-	!
2.D/	fran-	2.d\	fran-	2.f\	fran-	2.a\	fran-
4Cn/	-gi-	4A\	-gi-	4e\	-gi-	4a\	-gi-
2BBn/	-lem	2B-X\	-lem	2d\	-lem	2g#X\	-lem
=30	=30	=30	=30	=30	=30	=30	=30
2AA/	do-	2A/	do-	2e\	do-	2cc\	do-
1E	-ma-	(<2A/	-ma-	1e	-ma-	1bn	-ma-
.	.	2G#X/)	.	.	.	.	.
=31	=31	=31	=31	=31	=31	=31	=31
1.AA	-re,	1.A	-re	1.e	-re	1.cc#X	-re,
!LO:TX:a:t=P:problem=dopisek na pięciolinii za ostatnią kreską taktową	!	!	!	!	!	!	!
!LO:TX:b:i:t=V&colon;S&colon;	!	!	!	!	!	!	!
!LO:PB:g=original	!	!	!	!	!	!	!
=32	=32	=32	=32	=32	=32	=32	=32
2.A\	cor-	2.c\	cor-	2.e\	cor-	2.a\	cor-
4F\	-po-	4d\	-po-	4f\	-po-	4a\	-po-
2G\	-ris	2Bn\	-ris	2d\	-ris	2g\	-ris
!	!	!LO:LB:g=original	!	!LO:LB:g=original	!	!LO:LB:g=original	!
=33	=33	=33	=33	=33	=33	=33	=33
1C	se-	1c	se-	1e	se-	1g	se-
2C/	-xum	2c\	-xum	2e\	-xum	2g\	-xum
=34	=34	=34	=34	=34	=34	=34	=34
2.C/	do-	(>4c\	do-	2.g\	do-	2.cc\	do-
.	.	4G/)	.	.	.	.	.
.	.	(>4A\	-mu-	.	.	.	.
4D/	-mu-	4Bn\)	.	4f\	mu-	4a\	-mu-
2E\	-it	2c\	-it	(>4e\	-it	2g\	-it
.	.	.	.	4d\)	.	.	.
=35	=35	=35	=35	=35	=35	=35	=35
2F\	cru-	2c\	cru-	(>4f\	cru-	2a\	cru-
.	.	.	.	4e\)	.	.	.
(>2G\	-en-	(>2c\	-en-	1d	-en-	1g	-en-
2GG/)	.	2Bn\)	.	.	.	.	.
=36	=36	=36	=36	=36	=36	=36	=36
!	!	!	!	!	!	!LO:SIC:l:v:s=-tum	!
2C/	-tum	2c\	-tum	2e\	-tum	2g\	-tem
!LO:SIC:l:v:s=cae-	!	!LO:SIC:l:v:s=cae-	!	!LO:SIC:l:v:s=cae-	!	!LO:SIC:l:v:s=cae-	!
(>2c\	ce-	2e\	ce-	(>4e\	ce-	(>4g\L	ce-
.	.	.	.	4d\	.	4f\	.
4B-X\	.	(>4d\	-de	4e\	.	4g\	.
4A\	.	4c\)	.	4f\)	.	4a\J)	.
=37	=37	=37	=37	=37	=37	=37	=37
!	!	!LO:SIC:l:v:s=cae-	!	!	!	!	!
1G)	.	(>2.B-X\	ce-	2g\	de	2b-X\	de
!	!	!	!	!LO:SIC:l:v:s=cae-	!	!LO:SIC:l:v:s=cae-	!
.	.	.	.	(>4d\	ce-	2b-\	ce-
.	.	4A\	.	4c\	.	.	.
(>4F\	-de	4B-\	.	4d\	.	(>4a\L	-de
4E\)	.	4c\	.	4e\)	.	4g\J)	.
!LO:LB:g=original	!	!	!	!	!	!	!
=38	=38	=38	=38	=38	=38	=38	=38
!LO:SIC:l:v:s=cae-	!	!	!	!	!	!LO:SIC:l:v:s=cae-	!
2.D\	ce-	2d\)	.	2.f\	.	(>2f/	ce-
.	.	1d	-de	.	.	2dd\)	.
4E\	.	.	.	4g\	.	.	.
(>4F\	-de	.	.	2a\	-de	(>4cc\L	-de
4G\)	.	.	.	.	.	4b-X\J)	.
!	!	!	!	!LO:LB:g=original	!	!LO:LB:g=original	!
=39	=39	=39	=39	=39	=39	=39	=39
!	!	!	!	!LO:SIC:l:v:s=ty-	!	!LO:SIC:l:v:s=ty-	!
2A\	ty-	2c#X\	ty-	2e\	ti-	2a\	ti-
!LO:SIC:l:v:s=-ran-	!	!LO:SIC:l:v:s=-ran-	!	!LO:SIC:l:v:s=-ran-	!	!LO:SIC:l:v:s=-ran-	!
(>2D\	-ra-	1d	-ra-	(>2f#X\	-ra-	(>2a\	-ra-
2G\)	.	.	.	2g\)	.	2bn\)	.
!	!	!LO:LB:g=original	!	!	!	!	!
=40	=40	=40	=40	=40	=40	=40	=40
2C/	-num	2e\	-num	2g\	-num	2cc\	-num
!LO:SIC:l:v:s=cae-	!	!LO:SIC:l:v:s=cae-	!	!LO:SIC:l:v:s=cae-	!	!LO:SIC:l:v:s=cae-	!
(>2c\	ce-	4e\	ce-	(>4g\	ce-	(>4cc\L	ce-
.	.	4f\	.	4a\)	.	4dd\J)	.
2B-X\	.	4e\	.	(>4g\	de	(>4cc\L	de
.	.	4f\	.	4a\)	.	4dd\J)	.
=41	=41	=41	=41	=41	=41	=41	=41
!	!	!	!	!LO:SIC:l:v:s=cae-	!	!LO:SIC:l:v:s=cae-	!
2.A\	.	2.A\	.	2.f\	ce-	(>2.cc\	ce-
4G\	.	4B-X\	.	4g\	.	4b-X\)	.
2F\)	-de	2c\	-de	2a\	-de	2a\	-de
=42	=42	=42	=42	=42	=42	=42	=42
!LO:SIC:l:v:s=cae-	!	!LO:SIC:l:v:s=cae-	!	!LO:SIC:l:v:s=cae-	!	!LO:SIC:l:v:s=cae-	!
(>2.E\	ce-	1.c	ce-	2.g\	ce-	1b-X	ce-
4D\)	.	.	.	4f\	.	.	.
2C/	-de	.	.	2e\	de	2cc\	-de
=43	=43	=43	=43	=43	=43	=43	=43
!LO:SIC:l:v:s=cae-	!	!	!	!LO:SIC:l:v:s=cae-	!	!LO:SIC:l:v:s=cae-	!
(>2.F\	ce-	1.c	-de	1f	-ce-	1cc	ce-
4G\)	.	.	.	.	.	.	.
2A\	-de	.	.	2f\	-de	2cc\	-de
!LO:LB:g=original	!	!	!	!	!	!LO:LB:g=original	!
=44	=44	=44	=44	=44	=44	=44	=44
!	!	!	!	!LO:SIC:l:v:s=ty-	!	!LO:SIC:l:v:s=ty-	!
2B-X\	ty-	(>4B-X\	ty-	2f\	ti-	2dd\	ti-
.	.	4A\)	.	.	.	.	.
!LO:SIC:l:v:s=-ran-	!	!LO:SIC:l:v:s=-ran-	!	!LO:SIC:l:v:s=-ran-	!	!LO:SIC:l:v:s=-ran-	!
(>2c\	-ra-	1G	-ra-	(>2f\	-ra-	1cc	-ra-
2C/)	.	.	.	2en\)	.	.	.
=45	=45	=45	=45	=45	=45	=45	=45
!LO:N:vis=0	!	!	!	!	!	!	!
1.F	-num.	1.A	-num.	1.f	-num.	1.cc	-num.
!LO:TX:b:t=P:problem=napis na pięciolinii za ostatnią kreską taktową	!	!	!	!	!	!	!
!LO:TX:b:i:t=De Confes[s]oribus	!	!	!	!	!	!	!
==	==	==	==	==	==	==	==
*-	*-	*-	*-	*-	*-	*-	*-
!!!system-decoration: [(s1,s2,s3,s4)]
!!!RDF**kern: > = above
!!!RDF**kern: < = below
!!!EED: Mateusz Mrugas
!!!EEV: 2021-02-09
!!!ENC: Tomasz Grochalski
!!!END: 2021-01-31
!!!YEC: Copyright 2022 Narodowy Instytut Fryderyka Chopina (https://polishscores.org)
!!!YEM: License CC-BY-4.0 (https://creativecommons.org/licenses/by/4.0)
